!!!OTL: 336. Saecke flicken (Reigen).
!!!ARE: Europa, Mitteleuropa, Deutschland, Kassel
!!!SCT: K2336
!!!TXL: @@DE
!!!YEM: Copyright 1995, estate of Helmut Schaffrath.
**kern	**text
*clefG2	*
*M2/4	*
*k[]	*
*C:	*
=1	=1
{8g	Sä-
8f	-cke
8e	fli-
8B	-cken,
=2	=2
8g	Sä-
8f	-cke
8e	fli-
8B}	-cken,
=3	=3
{8g	ha-
8g	-ben
8a	kei-
8a	-ne
=4	=4
4g	Na-
4e}	-del.
=5	=5
{8g	Sä-
8f	-cke
8e	fli-
8B	-cken,
=6	=6
8g	Sä-
8f	-cke
8e	fli-
8B}	-cken,
=7	=7
{8g	ha-
8g	-ben
8a	kei-
8a	-ne
=8	=8
4g	Na-
4e}	-del.
=9	=9
{8g	Schnei-
8g	-der,
8a	Schneider,
8a	.
=10	=10
8g	hopp,
8f	hopp,
8e	hopp,
8r}	.
=11	=11
{8g	näh
8g	mir
8a	mei-
8a	-nen
=12	=12
8g	gu-
8f	-ten
8e	Rock!
8r}	.
==	==
!!!AGN: Kinder - Lied, Reigen, Tanz - Spiel
!!!ONB: ESAC (Essen Associative Code) Database: KINDER
!!!AMT: simple duple
!!!AIN: vox
!!!EED: Helmut Schaffrath
!!!EEV: 1.0
!!Kassel: Lewalter V. 25.
!!!GTL: Zweites Buch. Kinderspiel: 2. Reigen und Tanzspiele. / H. Thorbilden, Durchkriegen und Ziehkampf.
!!@@COMMENT:"!!Dann geſprochen: Wenn ich ʒähle Eins, ʒwei drei,
!!Muß das Röcklein fertig ſein.
!!Eins, ʒwei, drei: Das Röcklein iſt entʒwei. 
!!Ʒwei Kinder bilden durch Hochhalten der Arme und Anfaſſen der Hände ein Thor; eine ganʒe Reihe andrer Kinder macht es ebenſo und bilden ſie der Reihe 
!!entlang ein Thor. Dann gehen die letʒten ʒwei Kinder der Reihe nach durchs Thor und wenn ſie durch ſind, bilden ſie wieder ein neues Thor. So machens 
!!alle übrigen Paare, ſo daß ſchließlich alle Mitſpielenden mit verſchränkten Armen daſtehen. Bei dem Wort "hopp" bis ʒum Schluß hüpfen die Kinder. Beim 
!!geſprochenen Worte "entʒwei" wird die Reihe aufgelöſt. - Aus Kaſſel: Lewalter, Niederheſſiſches Volkslied 25. Aehnlich daſelbſt 37 aus der Wetterau. 
!!Jakob 221 "Flick den Sack"."
!!@@END:
!!!URL-scan: https://archive.org/details/DeutschesKinderliedUndKinderspiel/page/538/mode/1up
!!!ENC: Anna Maria Matuszewska
!!!EEV: 2024/05/09
*-	*-
